findly-builder/apps/searchassist/src/assets/icons/dwnld.svg

<svg width="14" height="14" viewBox="0 0 14 14" fill="none" xmlns="http://www.w3.org/2000/svg">
<path fill-rule="evenodd" clip-rule="evenodd" d="M7.53858 8.96875V0H6.46166V8.96875L4.00492 6.61298L3.26454 7.38702L7.00012 10.9754L10.7357 7.38702L9.99531 6.61298L7.53858 8.96875ZM1.07692 12.3849V9.6926H0V12.3849L0.00743905 12.5398C0.0861725 13.3556 0.779977 14.0003 1.61538 14.0003H12.3846L12.5395 13.9929C13.3553 13.9141 14 13.2203 14 12.3849V9.6926H12.9231V12.3849L12.9146 12.4831C12.8699 12.7372 12.6538 12.9234 12.3846 12.9234H1.61538L1.51715 12.9149C1.26306 12.8702 1.07692 12.6541 1.07692 12.3849Z" fill="#202124"/>
</svg>

<svg width="14" height="14" fill="none" xmlns="http://www.w3.org/2000/svg"><path fill-rule="evenodd" clip-rule="evenodd" d="M7.539 8.969V0H6.462v8.969L4.005 6.613l-.74.774L7 10.975l3.736-3.588-.74-.774-2.457 2.356Zm-6.462 3.416V9.693H0v2.692l.007.155C.087 13.356.78 14 1.615 14h10.77l.155-.007A1.622 1.622 0 0 0 14 12.385V9.693h-1.077v2.692l-.008.098a.53.53 0 0 1-.53.44H1.615l-.098-.008a.53.53 0 0 1-.44-.53Z" fill="#202124"/></svg>
